**kern	**silbe
*ICvox	*
*C:	*
*M12/8	*
*clefGv2	*
r;	.
=1	=1
4g	Un-
8g	-for-
8a	-get-
8b	-a-
8[a	ble
4.a]	_
4.c	Ooh
=2	=2
4d	_
8r	.
4.f	That's
4.e	what
4.d	you
=3	=3
2.c	are
4r	.
2r	.
=4	=4
1.r	.
=5	=5
8.r	.
8.[?G	un
8?G]	_
8?A	-for-
16?B	-get-
16?B	-a-
4.[?B	-ble
4B]	_
8r	.
=6	=6
4.r	.
8.r	.
16B	Mmmh
8[d	_
4.d_	_
4d]	_
8B	that's
=7	=7
8r	.
8c	what
16A	you
16[B	are
4.B_	_
4B]	_
8r	.
4.r	.
=8	=8
1.r	.
=9	=9
8.r	.
8.[?c	un
8?c]	_
8.?d	-for-
16?e	-get-
16?e	-a-
16[?e	-ble
4e_	_
4.e]	_
=10	=10
2.r	.
4g	Though
8.e	near
8.d	or
8[e	far
=11	=11
1.e]	_
=12	=12
1.r	.
=13	=13
8.r	.
8.f	like
4r	.
8g	a
4.[g	song
8g]	_
8f	of
8[f	love
=14	=14
8f]	_
4r	.
8r	.
8g	that
16g	clings
16[a	_
8a]	_
16g	to
8.[f	me
4.f]	_
=15	=15
4r	.
8[e	Ooh
4.e]	_
8e#-	how
8c	the
8e#-	thought
8r	.
8c	of
8e#-	you
=16	=16
8c	_
4e#-	does
4r	.
16d	things
16[e	_
8e]	_
16d	to
8.[c	me
4.c]	_
=17	=17
4.r	.
8r	.
16A	nev-
8.[A	-er
2A]	_
8d	be-
8[A	-fore
=18	=18
4A]	_
8r	.
4.r	.
4.r	.
4r	.
8[A	has
=19	=19
8.A]	_
8B	some-
16[B	-one
4B]	_
8r	.
4.r	.
4f	been
8[B	more
=20	=20
4.B_	_
8B]	_
4r	.
8r	.
8A	mmh
8[B	_
8B]	_
16e	_
16e	_
16B-	_
16A	_
=21	=21
8A	_
8A-	_
8r	.
8.G	Un-
8A	-for-
16B	-get-
16B	-a-
16[B	-ble
4B_	_
4.B]	_
=22	=22
4.r	.
4r	.
16r	.
16B	Ooh
4.d	_
16B	in
8A	_
8B	e-
16A	-very
=23	=23
2.[?B	way
4.B]	_
4.r	.
=24	=24
1.r	.
=25	=25
8.r	.
8.[?c	and
8?c]	_
8.?d	for
16?e	e-
16?e	-ver-
16[?e	-more
4?e_	_
4.e]	_
=26	=26
4.r	.
4.r	.
4g	I
4e	in-
4[e	-tend
=27	=27
8.e]	_
8d	to
16[e	stay
4.e_	_
4.e]	_
8r	.
4r	.
=28	=28
1.r	.
=29	=29
4r	.
8f	That's
8r	.
8.g	why
16g	dar
8f	_
4f	ling
4.r	.
=30	=30
4.r	.
8r	.
8f	it's
16r	.
16[g	in
16g]	_
16r	.
8a	cre-
16g	-di-
16[f	-ble
4.f]	_
=31	=31
4.r	.
8.r	.
8.e#-	that
16?e#-	some
8?c	_
16?e#-	one
8[?c	_
8?c]	_
8?e#-	so
8?e#-	un
=32	=32
8?c	_
8.?d	for-
16?e	-get-
16?d	-a-
16[?c	-ble
4c_	_
8c]	_
4r	.
4.r	.
=33	=33
4r	.
8[G	thinks
8.G]	_
8A	that
16[B	I
16B]	_
16[G	am
4G_	_
4G]	_
8r	.
=34	=34
4.r	.
8.G	un-
8.r	.
8r	.
8.d	-for-
16[d	-get
8d]	_
8A	a-
8[d	-ble
=35	=35
8d]	_
8d	too
8[c	_
4.c_	_
2.c]	_
=36	=36
2.r	.
4.Xb-	Please
8Xa	_
8Xg#Q	_
8Xa	won't
8Xf	you
=37	=37
8Xa	think
16Xf	that
8Xf	I
16[Xd	am
4.Xd]	_
4.r	.
8.Xb-	un-
8.Xa	-for-
=38	=38
16Xf	-get-
16Xg	-a-
8Xa	-ble
8Xf	_
4.Xg	_
4.r	.
4r	.
8[Xf	too
=39	=39
1.Xf_	_
=40	=40
2.Xf]	_
4r	.
2r	.
=41	=41
r;	.
=42	=42
r;	.
*-	*-
!!!ENC: Nathaniel Condit-Schultz